_site/images/features-page/circle-folder.svg

<svg fill="none" height="42" viewBox="0 0 42 42" width="42" xmlns="http://www.w3.org/2000/svg"><circle cx="21" cy="21" fill="#9aabbf" fill-opacity=".25" r="21"/><path clip-rule="evenodd" d="m28 14.5h-6.28l-.32-1c-.4252-1.2026-1.5644-2.0049-2.84-2h-4.56c-1.6569 0-3 1.3432-3 3v13c0 1.6569 1.3431 3 3 3h14c1.6569 0 3-1.3431 3-3v-10c0-1.6568-1.3431-3-3-3zm-9.73 5c.5362-.9288 1.5275-1.5007 2.6-1.5 1.6568 0 3 1.3431 3 3s-1.3432 3-3 3c-.5523 0-1-.4477-1-1s.4477-1 1-1 1-.4477 1-1c.0032-.4554-.3017-.8554-.7417-.9731-.4399-.1176-.9038.0769-1.1283.4731-.1703.3255-.5053.5314-.8726.5364s-.7077-.1918-.8867-.5126c-.179-.3207-.1678-.7138.0293-1.0238zm3.15 5.67c.0564.0353.1071.0792.15.13.0941.083.1691.1853.22.3.0525.1234.0797.256.08.39-.0038.2638-.1116.5154-.3.7-.0913.0936-.2.1683-.32.22-.1209.0478-.25.0716-.38.07-.1334.0029-.266-.0209-.39-.07-.12-.0517-.2287-.1264-.32-.22-.1848-.1862-.2889-.4376-.29-.7-.0029-.1333.0209-.2659.07-.39.0517-.12.1265-.2287.22-.32.2344-.2377.5721-.3427.9-.28l.19.08zm6.58 3.33c.5523 0 1-.4477 1-1v-10c0-.5523-.4477-1-1-1h-7c-.4299.0011-.8124-.2727-.95-.68l-.54-1.64c-.1376-.4073-.5201-.6811-.95-.68h-4.56c-.5523 0-1 .4477-1 1v13c0 .5523.4477 1 1 1z" fill="#6782a3" fill-rule="evenodd" opacity=".75"/></svg>

<svg width="42" height="42" viewBox="0 0 42 42" fill="none" xmlns="http://www.w3.org/2000/svg">
<circle cx="21" cy="21" r="21" fill="#9AABBF" fill-opacity="0.25"/>
<g opacity="0.75">
<path fill-rule="evenodd" clip-rule="evenodd" d="M28 14.5H21.72L21.4 13.5C20.9748 12.2974 19.8356 11.4951 18.56 11.5H14C12.3431 11.5 11 12.8432 11 14.5V27.5C11 29.1569 12.3431 30.5 14 30.5H28C29.6569 30.5 31 29.1569 31 27.5V17.5C31 15.8432 29.6569 14.5 28 14.5ZM18.27 19.5C18.8062 18.5712 19.7975 17.9993 20.87 18C22.5268 18 23.87 19.3431 23.87 21C23.87 22.6569 22.5268 24 20.87 24C20.3177 24 19.87 23.5523 19.87 23C19.87 22.4477 20.3177 22 20.87 22C21.4223 22 21.87 21.5523 21.87 21C21.8732 20.5446 21.5683 20.1446 21.1283 20.0269C20.6884 19.9093 20.2245 20.1038 20 20.5C19.8297 20.8255 19.4947 21.0314 19.1274 21.0364C18.7601 21.0414 18.4197 20.8446 18.2407 20.5238C18.0617 20.2031 18.0729 19.81 18.27 19.5ZM21.42 25.17C21.4764 25.2053 21.5271 25.2492 21.57 25.3C21.6641 25.383 21.7391 25.4853 21.79 25.6C21.8425 25.7234 21.8697 25.856 21.87 25.99C21.8662 26.2538 21.7584 26.5054 21.57 26.69C21.4787 26.7836 21.37 26.8583 21.25 26.91C21.1291 26.9578 21 26.9816 20.87 26.98C20.7366 26.9829 20.604 26.9591 20.48 26.91C20.36 26.8583 20.2513 26.7836 20.16 26.69C19.9752 26.5038 19.8711 26.2524 19.87 25.99C19.8671 25.8567 19.8909 25.7241 19.94 25.6C19.9917 25.48 20.0665 25.3713 20.16 25.28C20.3944 25.0423 20.7321 24.9373 21.06 25L21.25 25.08L21.42 25.17ZM28 28.5C28.5523 28.5 29 28.0523 29 27.5V17.5C29 16.9477 28.5523 16.5 28 16.5H21C20.5701 16.5011 20.1876 16.2273 20.05 15.82L19.51 14.18C19.3724 13.7727 18.9899 13.4989 18.56 13.5H14C13.4477 13.5 13 13.9477 13 14.5V27.5C13 28.0523 13.4477 28.5 14 28.5H28Z" fill="#6782A3"/>
</g>
</svg>
